src/main/resources/icons/AllIcons/fileTypes/htaccess.svg

<!-- Copyright 2000-2021 JetBrains s.r.o. Use of this source code is governed by the Apache 2.0 license that can be found in the LICENSE file. -->
<svg xmlns="http://www.w3.org/2000/svg" width="16" height="16" viewBox="0 0 16 16">
  <defs>
    <linearGradient id="htaccess-a" x1="16.835%" x2="159.599%" y1="63.497%" y2="19.863%">
      <stop offset="0%" stop-color="#F69923"/>
      <stop offset="31.23%" stop-color="#F79A23"/>
      <stop offset="83.83%" stop-color="#E97826"/>
    </linearGradient>
    <linearGradient id="htaccess-b" x1="-217.367%" x2="74.968%" y1="394.12%" y2="13.671%">
      <stop offset="32.33%" stop-color="#9E2064"/>
      <stop offset="63.02%" stop-color="#C92037"/>
      <stop offset="75.14%" stop-color="#CD2335"/>
      <stop offset="100%" stop-color="#E97826"/>
    </linearGradient>
    <linearGradient id="htaccess-c" x1="-20.305%" x2="125.697%" y1="192.631%" y2="-136.581%">
      <stop offset="0%" stop-color="#282662"/>
      <stop offset="9.548%" stop-color="#662E8D"/>
      <stop offset="78.82%" stop-color="#9F2064"/>
      <stop offset="94.87%" stop-color="#CD2032"/>
    </linearGradient>
    <linearGradient id="htaccess-d" x1="-79.867%" x2="146.442%" y1="170.503%" y2="-44.384%">
      <stop offset="32.33%" stop-color="#9E2064"/>
      <stop offset="63.02%" stop-color="#C92037"/>
      <stop offset="75.14%" stop-color="#CD2335"/>
      <stop offset="100%" stop-color="#E97826"/>
    </linearGradient>
    <linearGradient id="htaccess-e" x1="-18.376%" x2="164.728%" y1="77.298%" y2="-41.36%">
      <stop offset="0%" stop-color="#282662"/>
      <stop offset="9.548%" stop-color="#662E8D"/>
      <stop offset="78.82%" stop-color="#9F2064"/>
      <stop offset="94.87%" stop-color="#CD2032"/>
    </linearGradient>
    <linearGradient id="htaccess-f" x1="-34.831%" x2="110.897%" y1="187.637%" y2="-51.127%">
      <stop offset="32.33%" stop-color="#9E2064"/>
      <stop offset="63.02%" stop-color="#C92037"/>
      <stop offset="75.14%" stop-color="#CD2335"/>
      <stop offset="100%" stop-color="#E97826"/>
    </linearGradient>
    <linearGradient id="htaccess-g" x1="-129.474%" x2="66.599%" y1="465.394%" y2="17.067%">
      <stop offset="32.33%" stop-color="#9E2064"/>
      <stop offset="63.02%" stop-color="#C92037"/>
      <stop offset="75.14%" stop-color="#CD2335"/>
      <stop offset="100%" stop-color="#E97826"/>
    </linearGradient>
  </defs>
  <g fill="none" fill-rule="evenodd">
    <polygon fill="#9AA7B0" fill-opacity=".8" points="7 1 3 5 7 5"/>
    <path fill="#9AA7B0" fill-opacity=".8" d="M5.64528351,15 L3,15 L3,6 L8,6 L8,1 L13,1 L13,2.02283476 C11.7544188,2.98523303 10.274714,4.52517608 8.63599928,6.44873312 C5.80505854,9.7717495 5.16384082,13.5577805 5.73487738,14.8241621 L5.64528351,15 Z M13,10.1340458 L13,15 L8.78885494,15 C10.209598,14.1635289 11.8357822,12.4506622 13,10.1340458 Z"/>
    <g transform="rotate(5 -20.357 67.846)">
      <path fill="url(#htaccess-a)" fill-rule="nonzero" d="M8.04923869,0.105771142 C7.75152712,0.259620077 7.26636753,0.687512426 6.67645757,1.31252372 L7.21674893,2.19715509 C7.59164498,1.72599273 7.97756738,1.30290816 8.36348979,0.942324723 C8.39105567,0.913478048 8.4075952,0.89905471 8.4075952,0.89905471 C8.39105567,0.913478048 8.38002932,0.927901386 8.36348979,0.942324723 C8.23668671,1.0625192 7.85627749,1.44714154 7.28842024,2.21638621 C7.83973795,2.19234732 8.68876724,2.09619173 9.37791439,1.99042059 C9.58190194,0.985594736 9.17392683,0.524047933 9.17392683,0.524047933 C9.17392683,0.524047933 8.65568818,-0.206734506 8.04923869,0.105771142 Z"/>
      <path d="M7.5994438 5.1539393C7.6378055 5.1539393 7.6378055 5.1539393 7.6761672 5.1539393L7.13910338 5.26099022C7.10074167 5.26099022 7.06237997 5.31451568 7.06237997 5.31451568 7.21582678 5.20746476 7.40763529 5.20746476 7.5994438 5.1539393zM7.06971771 6.74050644C6.86512197 6.84755736 6.66052623 6.90108282 6.45593048 6.95460828 6.66052623 6.90108282 6.86512197 6.7940319 7.06971771 6.74050644zM2.86133896 10.2934553C2.86685214 10.2790319 2.87236531 10.2646086 2.87787849 10.254993 2.99365521 9.98094962 3.11494511 9.71652176 3.23072183 9.46170947 3.36303808 9.17324271 3.48984116 8.88958374 3.61664423 8.62034811 3.74896048 8.33188135 3.88127674 8.05783794 4.01359299 7.7886023 4.15142242 7.50975111 4.28373867 7.2357077 4.41605492 6.97608762 4.52631847 6.76454533 4.63106883 6.55781083 4.7358192 6.36069188 4.76889826 6.29338297 4.8074905 6.23088184 4.84056957 6.16357293 4.90672769 6.0337629 4.978399 5.90876064 5.04455712 5.78375838 5.10520207 5.66837168 5.16584702 5.55779276 5.22649197 5.45202161 5.24854468 5.41355938 5.26508421 5.37990493 5.28713692 5.34144269 5.2926501 5.33663491 5.2926501 5.33182713 5.29816327 5.32221157L5.23200515 5.32701935 5.18238655 5.23567155C5.17687337 5.24528711 5.1713602 5.25490267 5.16584702 5.25971045 5.07212301 5.42317494 4.978399 5.58663943 4.88467498 5.7549117 4.82954321 5.85106729 4.77992462 5.94722287 4.72479285 6.04337845 4.57593706 6.31261409 4.43259446 6.58184973 4.28925185 6.85589314 4.14590924 7.12993655 4.00256663 7.40878775 3.86473721 7.68763894 3.72690778 7.96168236 3.59459152 8.23572577 3.46778845 8.50496141 3.3354722 8.77900482 3.20866912 9.04824045 3.08737922 9.31747609 2.96057615 9.59632728 2.83377307 9.87517848 2.71248317 10.1540297 2.68491729 10.2165308 2.6573514 10.2790319 2.62978552 10.3415331 2.53054833 10.5626909 2.43682431 10.7838487 2.3431003 11.0001988L2.42579796 11.1444322 2.49746926 11.1396244C2.49746926 11.1348166 2.50298244 11.1252011 2.50298244 11.1203933 2.62427234 10.8415421 2.74004906 10.5626909 2.86133896 10.2934553z"/>
      <path fill="#BE202E" fill-rule="nonzero" d="M6.64520307,7.53859779 C6.45137552,7.64564871 6.24139568,7.75269963 6.03141584,7.91327601 C6.03141584,7.91327601 6.03141584,7.91327601 6.03141584,7.91327601 C6.14448191,7.85975055 6.24139568,7.80622509 6.35446175,7.75269963 C6.45137552,7.64564871 6.5482893,7.59212325 6.64520307,7.53859779 Z"/>
      <path fill="#BE202E" fill-rule="nonzero" d="M6.64520307,7.53859779 C6.45137552,7.64564871 6.24139568,7.75269963 6.03141584,7.91327601 C6.03141584,7.91327601 6.03141584,7.91327601 6.03141584,7.91327601 C6.14448191,7.85975055 6.24139568,7.80622509 6.35446175,7.75269963 C6.45137552,7.64564871 6.5482893,7.59212325 6.64520307,7.53859779 Z" opacity=".35"/>
      <path fill="#BE202E" fill-rule="nonzero" d="M6.42285142,7.00813374 C6.42285142,7.00813374 6.42285142,7.00813374 6.42285142,7.00813374 C6.42285142,7.00813374 6.42285142,7.00813374 6.42285142,7.00813374 C6.46377057,7.00813374 6.50468972,7.00813374 6.54560886,6.95460828 C6.70928546,6.90108282 6.87296205,6.7940319 7.03663865,6.74050644 C6.83204291,6.7940319 6.62744716,6.90108282 6.42285142,7.00813374 Z"/>
      <path fill="#BE202E" fill-rule="nonzero" d="M6.42285142,7.00813374 C6.42285142,7.00813374 6.42285142,7.00813374 6.42285142,7.00813374 C6.42285142,7.00813374 6.42285142,7.00813374 6.42285142,7.00813374 C6.46377057,7.00813374 6.50468972,7.00813374 6.54560886,6.95460828 C6.70928546,6.90108282 6.87296205,6.7940319 7.03663865,6.74050644 C6.83204291,6.7940319 6.62744716,6.90108282 6.42285142,7.00813374 Z" opacity=".35"/>
      <path fill="url(#htaccess-b)" fill-rule="nonzero" d="M5.6289539,4.48085021 C5.79434922,4.21642236 5.95974453,3.9519945 6.12513985,3.70198998 C6.30156152,3.43756213 6.47247001,3.18274983 6.65440486,2.93755309 C6.66543121,2.92312975 6.67645757,2.90870642 6.68748392,2.89428308 C6.86390559,2.65389412 7.04032726,2.41831294 7.21674893,2.19715509 L6.67645757,1.31252372 C6.63786533,1.35579373 6.59375991,1.39906375 6.55516767,1.44233376 C6.40079871,1.61060603 6.24091657,1.79330164 6.07552126,1.98561281 C5.88807323,2.20196287 5.70062521,2.43273628 5.50215083,2.67793301 C5.32021598,2.90389864 5.13828113,3.13467204 4.95634629,3.37986878 C4.80197733,3.58660328 4.64760837,3.79814557 4.4932394,4.01930341 C4.48772623,4.02891897 4.48221305,4.03372675 4.47669987,4.04334231 L5.17687337,5.25009489 C5.32572916,4.98566703 5.47458494,4.73085473 5.6289539,4.48085021 Z"/>
      <path fill="url(#htaccess-c)" fill-rule="nonzero" d="M2.44233749,11.2694344 C2.34861348,11.4905923 2.25488947,11.7165579 2.16116546,11.9473313 C2.16116546,11.9521391 2.16116546,11.9521391 2.15565228,11.9569469 C2.14462592,11.9906013 2.12808639,12.0242558 2.11706004,12.0531025 C2.05641509,12.2069514 2.00128332,12.346377 1.87448024,12.6684982 C2.0784678,12.7502304 3.93089533,12.3511848 4.38297586,11.7021346 C4.4215681,11.6444412 4.46016034,11.5819401 4.4932394,11.519439 C4.28925185,11.7454046 4.03013252,11.8415602 3.55048611,11.8223291 C4.25617279,11.5482856 4.60901613,11.2838578 4.92326722,10.8415421 C4.99493853,10.735771 5.07212301,10.625192 5.14379431,10.5001898 C4.52631847,11.0530844 3.80960543,11.2117411 3.05430016,11.0915466 L2.48644291,11.1444322 C2.48092973,11.1877022 2.45887702,11.2309722 2.44233749,11.2694344 Z"/>
      <path fill="url(#htaccess-d)" fill-rule="nonzero" d="M2.70697,10.168453 C2.82825989,9.89440959 2.95506297,9.6155584 3.08186605,9.33189943 C3.20315594,9.06266379 3.32995902,8.79342816 3.46227527,8.51938474 C3.59459152,8.24534133 3.72690778,7.97610569 3.85922403,7.70206228 C3.99705346,7.42321109 4.14039606,7.14435989 4.28373867,6.87031648 C4.42708128,6.59627306 4.57042388,6.32703743 4.71927967,6.05780179 C4.77441144,5.96164621 4.82403004,5.86549062 4.87916181,5.76933504 C4.97288582,5.60106277 5.06660983,5.43759828 5.16033384,5.27413378 C5.16584702,5.26451822 5.1713602,5.25490267 5.17687337,5.25009489 L4.47669987,4.03853453 C4.46567352,4.05295787 4.45464716,4.07218898 4.44362081,4.08661232 C4.27822549,4.31738572 4.11834336,4.55777468 3.95846122,4.79816364 C3.79857908,5.04336038 3.63869694,5.2933649 3.48432798,5.54336942 C3.35201173,5.7549117 3.22520865,5.97126177 3.10391875,6.18761183 C3.07635287,6.23088184 3.05430016,6.27415186 3.03224745,6.31742187 C2.87787849,6.59146528 2.74004906,6.85589314 2.61875916,7.11070544 C2.47541656,7.39917219 2.35412666,7.6732156 2.24386311,7.93283568 C2.17219181,8.10591573 2.10603368,8.26938022 2.04538873,8.42803694 C1.99577014,8.56265476 1.95166472,8.70208035 1.90755931,8.83669817 C1.80280894,9.1540116 1.7145981,9.4761328 1.63741362,9.79344623 L2.33758713,11.0098144 C2.43131114,10.7934643 2.52503515,10.5723065 2.62427234,10.3511486 C2.65183823,10.2934553 2.67940411,10.2309541 2.70697,10.168453 Z"/>
      <path fill="url(#htaccess-e)" fill-rule="nonzero" d="M1.62638727,9.84152402 C1.53817643,10.2309541 1.47753149,10.6155765 1.44445242,11.0001988 C1.44445242,11.0146221 1.39133446,12.3101017 1.49407102,12.5434959 C1.37533405,12.8374681 1.19665661,13.2944248 0.958038697,13.914366 L1.21841202,13.7910609 C1.49734395,13.0774975 1.71970881,12.5190118 1.8855066,12.1156036 C1.91307248,12.0531025 1.93512519,11.9906013 1.96269108,11.9281002 C1.96820425,11.9088691 1.97923061,11.8944457 1.98474379,11.8752146 C2.0784678,11.649249 2.17770499,11.4136678 2.27694218,11.1780866 C2.29899489,11.1252011 2.32104759,11.0723155 2.34861348,11.0146221 C2.34861348,11.0146221 2.11522231,10.6091661 1.64843998,9.79825401 C1.63190045,9.81748513 1.63190045,9.83190846 1.62638727,9.84152402 Z"/>
      <path fill="url(#htaccess-f)" fill-rule="nonzero" d="M5.28713692,5.34625047 C5.26508421,5.37990493 5.24854468,5.41836716 5.22649197,5.45682939 C5.16584702,5.56740831 5.10520207,5.67798724 5.04455712,5.78856616 C4.978399,5.91356842 4.91224087,6.03857068 4.84056957,6.16838071 C4.8074905,6.23088184 4.76889826,6.29819075 4.7358192,6.36549966 C4.63106883,6.56261861 4.52631847,6.76935311 4.41605492,6.9808954 C4.28373867,7.24051548 4.15142242,7.50975111 4.01359299,7.79341008 C3.88127674,8.06264572 3.74896048,8.33668913 3.61664423,8.62515589 C3.48984116,8.8991993 3.36303808,9.17805049 3.23072183,9.46651725 C3.11494511,9.72613732 2.99916839,9.99056518 2.87787849,10.2598008 C2.87236531,10.2742242 2.86685214,10.2838397 2.86133896,10.298263 C2.74556224,10.5674987 2.62427234,10.8463499 2.50849562,11.1300088 C2.50849562,11.1348166 2.50298244,11.1444322 2.50298244,11.14924 L3.07083969,11.0963544 C3.05981334,11.0963544 3.04878698,11.0915466 3.03776063,11.0915466 C3.71588142,11.0194299 4.6145293,10.5771142 5.19341291,10.0338352 C5.46355859,9.78383067 5.70613838,9.48574836 5.92666547,9.13958826 C6.09206079,8.87996818 6.25194293,8.59630921 6.40079871,8.27899578 C6.53311496,8.00014459 7.98859374,4.91355034 7.99962009,4.87508811 C7.98491829,4.88470367 7.08259495,5.03374482 5.2926501,5.32221157 C5.2926501,5.33663491 5.28713692,5.34144269 5.28713692,5.34625047 Z"/>
      <path fill="url(#htaccess-g)" fill-rule="nonzero" d="M7.28290706,2.21157843 C7.12302492,2.42312072 6.95211643,2.66350968 6.7646684,2.93755309 C6.75364205,2.95197643 6.74261569,2.96639977 6.73710252,2.9808231 C6.57722038,3.21640428 6.40631189,3.47602436 6.22989022,3.75968333 C6.07552126,4.00488007 5.91563912,4.26450015 5.74473062,4.54815912 C5.60138802,4.79335586 5.44701906,5.05297594 5.2926501,5.33182713 C7.08168622,5.04019105 7.98406352,4.88935151 7.99978199,4.8793085 C8.01473846,4.86975235 8.58953005,3.73564444 8.74941219,3.4664088 C8.90378115,3.20198095 9.04161058,2.94236087 9.14636095,2.70677969 C9.21251907,2.55773853 9.26765084,2.41831294 9.30072991,2.29811846 C9.33380897,2.19234732 9.35586168,2.08657617 9.37791439,1.99042059 C8.68325406,2.09138395 7.83422478,2.18753954 7.28290706,2.21157843 Z"/>
    </g>
  </g>
</svg>

<svg xmlns="http://www.w3.org/2000/svg" width="16" height="16" viewBox="0 0 16 16"><rect id="frame" width="16" height="16" fill="none"/><defs><linearGradient id="a" x1="16.835%" x2="159.599%" y1="63.497%" y2="19.863%"><stop offset="0%" stop-color="#F69923"/><stop offset="31.23%" stop-color="#F79A23"/><stop offset="83.83%" stop-color="#E97826"/></linearGradient><linearGradient id="b" x1="-217.367%" x2="74.968%" y1="394.12%" y2="13.671%"><stop offset="32.33%" stop-color="#9E2064"/><stop offset="63.02%" stop-color="#C92037"/><stop offset="75.14%" stop-color="#CD2335"/><stop offset="100%" stop-color="#E97826"/></linearGradient><linearGradient id="c" x1="-20.305%" x2="125.697%" y1="192.631%" y2="-136.581%"><stop offset="0%" stop-color="#282662"/><stop offset="9.548%" stop-color="#662E8D"/><stop offset="78.82%" stop-color="#9F2064"/><stop offset="94.87%" stop-color="#CD2032"/></linearGradient><linearGradient id="d" x1="-79.867%" x2="146.442%" y1="170.503%" y2="-44.384%"><stop offset="32.33%" stop-color="#9E2064"/><stop offset="63.02%" stop-color="#C92037"/><stop offset="75.14%" stop-color="#CD2335"/><stop offset="100%" stop-color="#E97826"/></linearGradient><linearGradient id="e" x1="-18.376%" x2="164.728%" y1="77.298%" y2="-41.36%"><stop offset="0%" stop-color="#282662"/><stop offset="9.548%" stop-color="#662E8D"/><stop offset="78.82%" stop-color="#9F2064"/><stop offset="94.87%" stop-color="#CD2032"/></linearGradient><linearGradient id="f" x1="-34.831%" x2="110.897%" y1="187.637%" y2="-51.127%"><stop offset="32.33%" stop-color="#9E2064"/><stop offset="63.02%" stop-color="#C92037"/><stop offset="75.14%" stop-color="#CD2335"/><stop offset="100%" stop-color="#E97826"/></linearGradient><linearGradient id="g" x1="-129.474%" x2="66.599%" y1="465.394%" y2="17.067%"><stop offset="32.33%" stop-color="#9E2064"/><stop offset="63.02%" stop-color="#C92037"/><stop offset="75.14%" stop-color="#CD2335"/><stop offset="100%" stop-color="#E97826"/></linearGradient></defs><g fill="none" fill-rule="evenodd"><path fill="#9AA7B0" fill-opacity=".8" d="M7 1L3 5h4z"/><path fill="#9AA7B0" fill-opacity=".8" d="M5.645 15H3V6h5V1h5v1.023c-1.246.962-2.725 2.502-4.364 4.426-2.83 3.323-3.472 7.109-2.901 8.375l-.09.176zM13 10.134V15H8.789c1.42-.836 3.047-2.55 4.211-4.866z"/><path fill="url(#a)" fill-rule="nonzero" d="M8.05.106c-.298.154-.784.582-1.374 1.207l.54.884c.376-.471.762-.894 1.147-1.255C8.391.913 8.408.9 8.408.9c-.017.014-.028.029-.045.043-.126.12-.507.505-1.075 1.274.552-.024 1.4-.12 2.09-.226C9.582.986 9.174.524 9.174.524s-.518-.73-1.125-.418z" transform="rotate(5 -20.357 67.846)"/><path d="M12.957 7.83l.076.006-.544.06c-.038-.004-.081.046-.081.046.162-.093.353-.076.549-.113zm-.666 1.533a2.795 2.795 0 0 1-.63.16c.208-.035.422-.124.63-.16zm-4.502 3.173a.306.306 0 0 1 .02-.037c.14-.263.283-.516.42-.76.157-.275.308-.547.458-.804.157-.276.313-.537.468-.794.162-.266.318-.527.472-.774.128-.201.25-.398.372-.585.039-.065.083-.123.122-.188.077-.123.16-.241.236-.36.07-.11.14-.215.21-.315l.07-.105c.006-.004.007-.009.013-.018h-.066l-.042-.096c-.006.009-.013.018-.019.022-.107.155-.215.31-.323.47-.063.09-.12.182-.184.273a40.963 40.963 0 0 0-1.467 2.343c-.156.26-.305.518-.45.776-.15.266-.301.533-.446.8l-.099.18c-.118.211-.23.424-.343.631l.07.15.072.002c0-.004.007-.014.007-.018.145-.268.285-.535.429-.793z"/><path fill="#BE202E" fill-rule="nonzero" d="M11.799 10.121c-.203.09-.421.179-.645.32.118-.043.219-.088.336-.132.106-.098.207-.143.309-.188z"/><path fill="#BE202E" fill-rule="nonzero" d="M11.799 10.121c-.203.09-.421.179-.645.32.118-.043.219-.088.336-.132.106-.098.207-.143.309-.188z" opacity=".35"/><path fill="#BE202E" fill-rule="nonzero" d="M11.623 9.574c.041.003.082.007.127-.043.168-.039.34-.131.508-.17-.208.035-.422.124-.635.213z"/><path fill="#BE202E" fill-rule="nonzero" d="M11.623 9.574c.041.003.082.007.127-.043.168-.039.34-.131.508-.17-.208.035-.422.124-.635.213z" opacity=".35"/><path fill="url(#b)" fill-rule="nonzero" d="M5.629 4.48c.165-.264.33-.528.496-.778.177-.264.347-.52.53-.764l.032-.044c.177-.24.353-.476.53-.697l-.54-.884c-.04.043-.083.086-.122.13A27.173 27.173 0 0 0 4.493 4.02c-.005.009-.01.014-.016.023l.7 1.207c.149-.264.298-.52.452-.77z" transform="rotate(5 -20.357 67.846)"/><path fill="url(#c)" fill-rule="nonzero" d="M2.442 11.27c-.093.22-.187.447-.28.677 0 .005 0 .005-.006.01-.011.034-.028.067-.039.096l-.243.615c.204.082 2.057-.317 2.509-.966.039-.058.077-.12.11-.183-.204.226-.463.323-.943.303.706-.274 1.059-.538 1.373-.98.072-.106.15-.217.22-.342-.617.553-1.333.712-2.089.592l-.568.052c-.005.044-.027.087-.044.125z" transform="rotate(5 -20.357 67.846)"/><path fill="url(#d)" fill-rule="nonzero" d="M2.707 10.168c.121-.274.248-.552.375-.836.121-.27.248-.539.38-.813.133-.274.265-.543.397-.817a40.963 40.963 0 0 1 .86-1.644c.055-.096.105-.193.16-.289.094-.168.188-.331.281-.495a.104.104 0 0 1 .017-.024l-.7-1.211c-.011.014-.022.033-.033.048-.166.23-.326.47-.486.711-.16.245-.32.495-.474.745-.132.212-.259.428-.38.645-.028.043-.05.086-.072.13-.154.273-.292.538-.413.793a14.999 14.999 0 0 0-.574 1.317c-.05.135-.093.274-.137.409-.105.317-.193.64-.27.956l.7 1.217c.093-.217.187-.438.286-.659.028-.058.055-.12.083-.183z" transform="rotate(5 -20.357 67.846)"/><path fill="url(#e)" fill-rule="nonzero" d="M1.626 9.842c-.088.389-.148.774-.182 1.158 0 .015-.053 1.31.05 1.543-.119.294-.297.751-.536 1.371l.26-.123c.28-.714.502-1.272.668-1.675.027-.063.05-.125.077-.188.005-.02.016-.034.022-.053.093-.226.193-.461.292-.697.022-.053.044-.106.072-.163l-.7-1.217c-.017.02-.017.034-.023.044z" transform="rotate(5 -20.357 67.846)"/><path fill="url(#f)" fill-rule="nonzero" d="M5.287 5.346c-.022.034-.038.072-.06.11l-.182.333c-.067.125-.133.25-.204.38-.034.062-.072.13-.105.196-.105.198-.21.404-.32.616-.132.26-.265.529-.402.812-.133.27-.265.544-.397.832-.127.274-.254.553-.386.842-.116.26-.232.524-.353.793l-.017.038c-.115.27-.237.548-.353.832 0 .005-.005.014-.005.02l.568-.054c-.011 0-.022-.004-.033-.004.678-.073 1.577-.515 2.155-1.058.27-.25.513-.548.734-.894.165-.26.325-.544.474-.861C6.533 8 7.989 4.914 8 4.875c-.015.01-.917.159-2.707.447 0 .015-.006.02-.006.024z" transform="rotate(5 -20.357 67.846)"/><path fill="url(#g)" fill-rule="nonzero" d="M7.283 2.212c-.16.211-.33.452-.518.726-.011.014-.022.028-.028.043-.16.235-.33.495-.507.779-.154.245-.314.505-.485.788-.144.245-.298.505-.452.784C7.082 5.04 7.984 4.889 8 4.879c.015-.01.59-1.143.75-1.413a7.99 7.99 0 0 0 .396-.76c.067-.148.122-.288.155-.408.033-.106.055-.211.077-.308-.695.101-1.544.198-2.095.222z" transform="rotate(5 -20.357 67.846)"/></g></svg>
